public/images/no2.svg

<svg width="18" height="22" viewBox="0 0 18 22" fill="none" xmlns="http://www.w3.org/2000/svg">
<path d="M7.78589 4.39044C8.54095 3.97097 9.45905 3.97097 10.2141 4.39044L15.2141 7.16822C16.0078 7.60914 16.5 8.4457 16.5 9.35361V14.6464C16.5 15.5543 16.0078 16.3909 15.2141 16.8318L10.2141 19.6096C9.45905 20.029 8.54095 20.029 7.78589 19.6096L2.78589 16.8318C1.99223 16.3909 1.5 15.5543 1.5 14.6464V9.35361C1.5 8.4457 1.99223 7.60914 2.78589 7.16822L7.78589 4.39044Z" fill="#FFD991" stroke="#83828A" stroke-width="3"/>
<path d="M7.78589 2.39044C8.54095 1.97097 9.45905 1.97097 10.2141 2.39044L15.2141 5.16822C16.0078 5.60914 16.5 6.4457 16.5 7.35361V12.6464C16.5 13.5543 16.0078 14.3909 15.2141 14.8318L10.2141 17.6096C9.45905 18.029 8.54095 18.029 7.78589 17.6096L2.78589 14.8318C1.99223 14.3909 1.5 13.5543 1.5 12.6464V7.35361C1.5 6.4457 1.99223 5.60914 2.78589 5.16822L7.78589 2.39044Z" fill="#CECDD6" stroke="#EDECF3" stroke-width="3"/>
<path d="M12.1682 11.6612C12.2488 11.6612 12.3185 11.6906 12.3772 11.7492C12.4358 11.8079 12.4652 11.8776 12.4652 11.9582V13.6302C12.4652 13.7109 12.4358 13.7806 12.3772 13.8392C12.3185 13.8979 12.2488 13.9272 12.1682 13.9272H5.83216C5.75149 13.9272 5.68182 13.8979 5.62316 13.8392C5.56449 13.7806 5.53516 13.7109 5.53516 13.6302V12.4862C5.53516 12.2222 5.62682 12.0242 5.81016 11.8922C5.98616 11.7676 6.15116 11.6466 6.30516 11.5292C7.14116 10.9279 7.75716 10.4769 8.15316 10.1762C8.54916 9.86824 8.85716 9.59324 9.07716 9.35124C9.30449 9.10191 9.41816 8.87824 9.41816 8.68024C9.41816 8.54091 9.39249 8.43458 9.34116 8.36124C9.29716 8.28058 9.19082 8.24024 9.02216 8.24024C8.88282 8.24024 8.77282 8.27324 8.69216 8.33924C8.61149 8.39791 8.55649 8.45658 8.52716 8.51524C8.50516 8.57391 8.46849 8.66924 8.41716 8.80124C8.38049 8.89658 8.32549 8.96258 8.25216 8.99924C8.17882 9.03591 8.08716 9.05424 7.97716 9.05424H5.90916C5.84316 9.05424 5.78449 9.03224 5.73316 8.98824C5.68916 8.93691 5.66716 8.87824 5.66716 8.81224C5.67449 8.26958 5.82482 7.79291 6.11816 7.38224C6.41149 6.96424 6.80749 6.64158 7.30616 6.41424C7.81216 6.18691 8.38049 6.07324 9.01116 6.07324C10.0232 6.07324 10.8225 6.29324 11.4092 6.73324C12.0032 7.16591 12.3002 7.76724 12.3002 8.53724C12.3002 9.11658 12.0985 9.64091 11.6952 10.1102C11.2918 10.5796 10.6758 11.0966 9.84716 11.6612H12.1682Z" fill="white"/>
</svg>

<svg xmlns="http://www.w3.org/2000/svg" width="18" height="22" fill="none"><path fill="#FFD991" stroke="#83828A" stroke-width="3" d="M7.786 4.39a2.5 2.5 0 0 1 2.428 0l5 2.778A2.5 2.5 0 0 1 16.5 9.354v5.292a2.5 2.5 0 0 1-1.286 2.186l-5 2.778a2.5 2.5 0 0 1-2.428 0l-5-2.778A2.5 2.5 0 0 1 1.5 14.646V9.354a2.5 2.5 0 0 1 1.286-2.186l5-2.778Z"/><path fill="#CECDD6" stroke="#EDECF3" stroke-width="3" d="M7.786 2.39a2.5 2.5 0 0 1 2.428 0l5 2.778A2.5 2.5 0 0 1 16.5 7.354v5.292a2.5 2.5 0 0 1-1.286 2.186l-5 2.778a2.5 2.5 0 0 1-2.428 0l-5-2.778A2.5 2.5 0 0 1 1.5 12.646V7.354a2.5 2.5 0 0 1 1.286-2.186l5-2.778Z"/><path fill="#fff" d="M12.168 11.661c.08 0 .15.03.21.088a.286.286 0 0 1 .087.21v1.671c0 .08-.03.15-.088.21a.286.286 0 0 1-.209.087H5.832a.29.29 0 0 1-.209-.088.285.285 0 0 1-.088-.209v-1.144c0-.264.092-.462.275-.594.176-.124.341-.245.495-.363a97.54 97.54 0 0 0 1.848-1.353c.396-.308.704-.583.924-.825.227-.25.341-.473.341-.67a.554.554 0 0 0-.077-.32c-.044-.08-.15-.12-.319-.12-.14 0-.25.032-.33.098a.52.52 0 0 0-.165.176l-.11.286A.348.348 0 0 1 8.252 9a.612.612 0 0 1-.275.055H5.91a.263.263 0 0 1-.176-.066.263.263 0 0 1-.066-.176c.007-.542.158-1.02.451-1.43.293-.418.69-.74 1.188-.968.506-.227 1.074-.34 1.705-.34 1.012 0 1.812.22 2.398.66.594.432.891 1.033.891 1.803 0 .58-.202 1.104-.605 1.573-.403.47-1.02.987-1.848 1.551h2.321Z"/></svg>
